X: 47
T: Missa octavi toni &mdash; Credo
C: Gaspar van Weerbeke
%%abc-version 2.0
%%abcx-abcm2ps-target-version 5.9.1 (29 Sep 2008)
%%abc-creator hum2abc beta
%%abcx-conversion-date 2022/03/06 13:05:59
%%abc-copyright Copyright 2016, Kolb, Paul
%%abc-edited-by Sapp, Craig Stuart
%%humdrum-veritas 419429787
%%humdrum-veritas-data 2829726351
%%linebreak <none>
%%barnumbers 0
L: 1/4
M: 3/2
N: Derived from Gas0204c-Missa_Octavi_toni-Credo.krn
%%staves [1 2 3 4]
V: 1 clef=treble
V: 2 clef=treble-8
V: 3 clef=treble-8
V: 4 clef=bass
K: C
[V:1] G4G2 | 
[V:2] z6 | 
[V:3] G6 | 
[V:4] z6 | 
[V:1] E2EFG2 | 
[V:2] z6 | 
[V:3] c2>A2B2 | 
[V:4] z6 | 
[V:1] A3G/F/E2 | 
[V:2] z6 | 
[V:3] A>Bcd2^c | 
[V:4] z6 | 
[V:1] D2A2BB | 
[V:2] z6 | 
[V:3] d6 | 
[V:4] z6 | 
[V:1] c>BG2F2 | 
[V:2] z6 | 
[V:3] e4d2 | 
[V:4] z6 | 
[V:1] DG>FE/D/CF- | 
[V:2] z6 | 
[V:3] BGc>B A/G/F/E/ | 
[V:4] z6 | 
[V:1] F/ E/DCB,A,2 | 
[V:2] z6 | 
[V:3] DBAG2^F | 
[V:4] z6 | 
[V:1] z2G2GE- | 
[V:2] z6 | 
[V:3] G2z2G2 | 
[V:4] z6 | 
[V:1] ECC2G2 | 
[V:2] z6 | 
[V:3] GE2CC2 | 
[V:4] z6 | 
[V:1] ED/C/B,CED | 
[V:2] z6 | 
[V:3] zG2ECG- | 
[V:4] z6 | 
[V:1] GF>ED/C/D2 | 
[V:2] z6 | 
[V:3] GA>Gc2B | 
[V:4] z6 | 
[V:1] C4z2 | 
[V:2] z6 | 
[V:3] c2z2c2 | 
[V:4] C,6 | 
[V:1] z6 | 
[V:2] z6 | 
[V:3] cA2Ad3/c/ | 
[V:4] F,2F,D,2D, | 
[V:1] z6 | 
[V:2] z6 | 
[V:3] B/A/G2c2B | 
[V:4] G,2E,C,E,D, | 
[V:1] z6 | 
[V:2] z6 | 
[V:3] AB2G2^F | 
[V:4] C,D,2B,,A,,2 | 
[V:1] z2z2D2 | 
[V:2] d2eedB | 
[V:3] G2z2G2 | 
[V:4] G,,4G,,2 | 
[V:1] EED2G2 | 
[V:2] GcB2d2 | 
[V:3] GG2GG2 | 
[V:4] C,C,G,,2G,,G,, | 
[V:1] GD2GGG | 
[V:2] cdB3/c//d//ec | 
[V:3] GG2GGG | 
[V:4] C,B,,G,,G,,C,E, | 
[V:1] F4E2 | 
[V:2] d4G3/G/ | 
[V:3] A4c2 | 
[V:4] D,2>D,2C,C, | 
[V:1] GA2AG3/F/ | 
[V:2] Gzz2d2- | 
[V:3] BAd2_B2 | 
[V:4] E,F,D,2G,2 | 
[V:1] F4zF- | 
[V:2] d2dA2A | 
[V:3] A2zd2d | 
[V:4] D,D,D,D,D,2 | 
[V:1] FFFFG3/A/ | 
[V:2] DDF2E2 | 
[V:3] d2d2e2 | 
[V:4] z2z2C,2 | 
[V:1] _BA2G2^F | 
[V:2] zA2d3 | 
[V:3] dc2BA2 | 
[V:4] D,F,2G,D,2 | 
[V:1] G2zE2E | 
[V:2] B2zc2c- | 
[V:3] G2zG3 | 
[V:4] G,,2zC,2C,- | 
[V:1] EEFEFE/D/ | 
[V:2] ccdcd2 | 
[V:3] G2AGAG/F/ | 
[V:4] C,E,D,E,D,2 | 
[V:1] C2zC2C | 
[V:2] z6 | 
[V:3] E2zE2E | 
[V:4] zA,,2A,,A,,2 | 
[V:1] DCDFED- | 
[V:2] A4cA- | 
[V:3] FEFDGF | 
[V:4] D,A,,D,2C,D, | 
[V:1] D^CDFED | 
[V:2] AAA>Bcd- | 
[V:3] E2D2z2 | 
[V:4] A,,2z2z2 | 
[V:1] E2DFE2 | 
[V:2] d^cd2A2 | 
[V:3] A2Bd2^c | 
[V:4] z6 | 
[V:1] z6 | 
[V:2] z6 | 
[V:3] d2d>cBA | 
[V:4] D,>C,B,,A,,G,,C, | 
[V:1] z6 | 
[V:2] z6 | 
[V:3] GcBA2^G | 
[V:4] B,,A,,D,C,B,,2 | 
[V:1] z6 | 
[V:2] z6 | 
[V:3] A2zABc | 
[V:4] A,,2A,,D,2E, | 
[V:1] z6 | 
[V:2] z6 | 
[V:3] Ad2BcA- | 
[V:4] F,D,G,2E,F, | 
[V:1] z6 | 
[V:2] z6 | 
[V:3] ABGA2F | 
[V:4] D,2E,C,D,2 | 
[V:1] z6 | 
[V:2] z6 | 
[V:3] D2EG2^F | 
[V:4] B,,G,,C,B,,A,,2 | 
[V:1] GGGGA2 | 
[V:2] z6 | 
[V:3] G2z2z2 | 
[V:4] G,,4z2 | 
[V:1] GB>AG2^F | 
[V:2] z6 | 
[V:3] G4A2 | 
[V:4] z6 | 
[V:1] GD2B,A,2 | 
[V:2] GGGGA2 | 
[V:3] GB2G2^F | 
[V:4] G,,G,,G,,G,,D,2 | 
[V:1] GGABc2 | 
[V:2] GBAG2^F | 
[V:3] G2zGAA | 
[V:4] B,,G,,C,B,,A,,2 | 
[V:1] B2AG2^F | 
[V:2] Gd2cd2 | 
[V:3] D2FGA2 | 
[V:4] G,,2D,E,D,2 | 
[V:1] G4z2 | 
[V:2] B2c2B2 | 
[V:3] G2z2z2 | 
[V:4] G,,2z2G,2 | 
[V:1] c2B2AA | 
[V:2] A2G2c2 | 
[V:3] z6 | 
[V:4] F,2G,G,F,2 | 
[V:1] G2c2BG | 
[V:2] BGA2GB | 
[V:3] z6 | 
[V:4] G,E,F,2G,2 | 
[V:1] A2FDE2 | 
[V:2] cA2d2^c | 
[V:3] z2z2A2 | 
[V:4] F,2D,2z2 | 
[V:1] D2z2z2 | 
[V:2] d2e2d2 | 
[V:3] Bd2^cd2- | 
[V:4] z2A,2F,G, | 
[V:1] A2Bd2^c | 
[V:2] zf>edA2 | 
[V:3] d4e2 | 
[V:4] D,4z2 | 
[V:1] d>cBA>GG- | 
[V:2] z6 | 
[V:3] d4c2- | 
[V:4] D,G,2D,F,C, | 
[V:1] GEFA2G | 
[V:2] z2ddd2 | 
[V:3] c2dA_B2 | 
[V:4] E,2D,F,G,2 | 
[V:1] A2z2A2- | 
[V:2] zf2f2f | 
[V:3] A6 | 
[V:4] D,4z2 | 
[V:1] A2AF2D | 
[V:2] d2Adf3/e/ | 
[V:3] AF2DA3/G/ | 
[V:4] D,2D,2D,D,- | 
[V:1] A>G F/E/F2D | 
[V:2] d/c/d2A2F | 
[V:3] F/E/F2Dd2 | 
[V:4] D,D,2D,D,2 | 
[V:1] FDCDE2 | 
[V:2] D>EFDA2- | 
[V:3] A_BAd2^c | 
[V:4] D,2zD,A,,2 | 
[V:1] zd>cBA3/G/ | 
[V:2] A2zGA2- | 
[V:3] d2BGzd- | 
[V:4] D,2G,2F,D,- | 
[V:1] F/E/DzG2^F | 
[V:2] ABc2d2 | 
[V:3] d/ c/BAGA2 | 
[V:4] D,G,F,E,D,2 | 
[V:1] G6- | 
[V:2] B>cde2d | 
[V:3] G6- | 
[V:4] G,,6- | 
[V:1] G6 ||  
[V:2] d6 ||  
[V:3] G6 ||  
[V:4] G,,6 ||  
[V:1] [M:2/2]G4 | 
[V:2] [M:2/2]d4 | 
[V:3] [M:2/2]G4 | 
[V:4] [M:2/2]G,,4 | 
[V:1] G2E2 | 
[V:2] c2c2 | 
[V:3] G2G2 | 
[V:4] C,2E,2 | 
[V:1] F2F2 | 
[V:2] d2d2 | 
[V:3] A2B2 | 
[V:4] D,2D,2 | 
[V:1] E4 | 
[V:2] G4 | 
[V:3] c4 | 
[V:4] C,4 | 
[V:1] z2A2 | 
[V:2] z2A2 | 
[V:3] z2c2 | 
[V:4] z2F,2 | 
[V:1] A2A2 | 
[V:2] A2F2 | 
[V:3] c2c2 | 
[V:4] F,2F,2 | 
[V:1] G2F2 | 
[V:2] G2A2- | 
[V:3] c2d2- | 
[V:4] E,2D,2 | 
[V:1] G4 | 
[V:2] A2G2 | 
[V:3] d2^c2 | 
[V:4] E,4 | 
[V:1] !fermata!^F4 | 
[V:2] !fermata!A4 | 
[V:3] !fermata!d4 | 
[V:4] !fermata!D,4 | 
[V:1] A2A2 | 
[V:2] A2A2 | 
[V:3] c2c2 | 
[V:4] F,2F,2 | 
[V:1] G4 | 
[V:2] c4 | 
[V:3] e4 | 
[V:4] C,4 | 
[V:1] F4 | 
[V:2] A3G | 
[V:3] d4 | 
[V:4] D,4 | 
[V:1] G2F2 | 
[V:2] E2z2 | 
[V:3] e2d2 | 
[V:4] C,2D,2- | 
[V:1] D2G2 | 
[V:2] F2D2 | 
[V:3] B4 | 
[V:4] D,2B,,2 | 
[V:1] A2c2 | 
[V:2] E2^F2 | 
[V:3] c4 | 
[V:4] A,,4 | 
[V:1] B4 | 
[V:2] G4 | 
[V:3] d4 | 
[V:4] G,,4 | 
[V:1] z2B2 | 
[V:2] z2G2 | 
[V:3] z2d2 | 
[V:4] z2G,2 | 
[V:1] B2B2 | 
[V:2] B2d3/e/ | 
[V:3] d2B2 | 
[V:4] G,2G,2 | 
[V:1] A2c2 | 
[V:2] f2ef | 
[V:3] c4 | 
[V:4] F,2A,2 | 
[V:1] B>GAB | 
[V:2] gefd | 
[V:3] d>BcB | 
[V:4] G,2F,G, | 
[V:1] AB>AG | 
[V:2] zde2 | 
[V:3] cBc2 | 
[V:4] F,G,E,2 | 
[V:1] ^F2F3/G/ | 
[V:2] A2zd- | 
[V:3] d>cA2 | 
[V:4] D,4- | 
[V:1] A/B<AG/^F/E/ | 
[V:2] dc/B/A2 | 
[V:3] ^F>G A/B/A | 
[V:4] D,4- | 
[V:1] ^FG2F | 
[V:2] zd>cB/A/ | 
[V:3] dBA2 | 
[V:4] D,4 | 
[V:1] G4 ||  
[V:2] [B4d4] ||  
[V:3] G4 ||  
[V:4] G,,4 ||  
[V:1] [M:2/2]z4 | 
[V:2] [M:2/2]z4 | 
[V:3] [M:2/2]z4 | 
[V:4] [M:2/2]G,,2C,2 | 
[V:1] z4 | 
[V:2] G2c2 | 
[V:3] z4 | 
[V:4] B,,2A,,2 | 
[V:1] z4 | 
[V:2] B2A2 | 
[V:3] z4 | 
[V:4] G,G,A,F, | 
[V:1] z4 | 
[V:2] ccdB | 
[V:3] z4 | 
[V:4] E,2D,G, | 
[V:1] z4 | 
[V:2] A2G2 | 
[V:3] z4 | 
[V:4] F,D,E,2 | 
[V:1] z4 | 
[V:2] zdcA | 
[V:3] z4 | 
[V:4] D,2zF, | 
[V:1] z4 | 
[V:2] B2A2 | 
[V:3] z4 | 
[V:4] G,E,F,E,/D,/ | 
[V:1] z4 | 
[V:2] zcdB | 
[V:3] z4 | 
[V:4] C,2zG, | 
[V:1] z4 | 
[V:2] cB/A/Gd | 
[V:3] z4 | 
[V:4] E,F,G,2 | 
[V:1] z4 | 
[V:2] Bcd2- | 
[V:3] z4 | 
[V:4] G,E,F,D,- | 
[V:1] z4 | 
[V:2] dBcA- | 
[V:3] z4 | 
[V:4] D,G,E,F, | 
[V:1] z4 | 
[V:2] AdBc | 
[V:3] z4 | 
[V:4] D,2G,E, | 
[V:1] z4 | 
[V:2] AB>AG | 
[V:3] z4 | 
[V:4] F,D,>C,B,, | 
[V:1] z4 | 
[V:2] ^FG2^F | 
[V:3] z4 | 
[V:4] A,,G,,A,,2 | 
[V:1] z4 ||  
[V:2] G4 ||  
[V:3] z4 ||  
[V:4] G,,4 ||  
[V:1] [M:2/2]z4 | 
[V:2] [M:2/2]z4 | 
[V:3] [M:2/2]G2cc | 
[V:4] [M:2/2]z4 | 
[V:1] G2cc | 
[V:2] z4 | 
[V:3] B2A2 | 
[V:4] z4 | 
[V:1] B2A2 | 
[V:2] z4 | 
[V:3] zGAF | 
[V:4] z4 | 
[V:1] zGAF | 
[V:2] z4 | 
[V:3] E2Dd- | 
[V:4] z4 | 
[V:1] E2Dd- | 
[V:2] z4 | 
[V:3] dcB2 | 
[V:4] z4 | 
[V:1] dcB2 | 
[V:2] z4 | 
[V:3] A2zG | 
[V:4] z4 | 
[V:1] A2zG | 
[V:2] z4 | 
[V:3] FDFE | 
[V:4] z4 | 
[V:1] FDFE | 
[V:2] z4 | 
[V:3] D2dc | 
[V:4] z4 | 
[V:1] DF2E- | 
[V:2] z4 | 
[V:3] BA2G | 
[V:4] z4 | 
[V:1] ED2^C | 
[V:2] z4 | 
[V:3] AFE2 | 
[V:4] z4 | 
[V:1] D2A2 | 
[V:2] z4 | 
[V:3] D4 | 
[V:4] z4 | 
[V:1] Bc2B/A/ | 
[V:2] z4 | 
[V:3] z2A2 | 
[V:4] z4 | 
[V:1] G2A2- | 
[V:2] z4 | 
[V:3] Bc2d | 
[V:4] z4 | 
[V:1] ABAd- | 
[V:2] z4 | 
[V:3] cd2d | 
[V:4] z4 | 
[V:1] d^cd2 | 
[V:2] z4 | 
[V:3] e2dB | 
[V:4] z4 | 
[V:1] zcdB | 
[V:2] z4 | 
[V:3] c>BG2 | 
[V:4] z4 | 
[V:1] c>BG2 | 
[V:2] z4 | 
[V:3] A2Bc- | 
[V:4] z4 | 
[V:1] zA2c- | 
[V:2] z4 | 
[V:3] c/B/A/G/F2 | 
[V:4] z4 | 
[V:1] c/ B/A/G/F2 | 
[V:2] z4 | 
[V:3] E2DA- | 
[V:4] z4 | 
[V:1] E2DA- | 
[V:2] z4 | 
[V:3] AcBd- | 
[V:4] z4 | 
[V:1] AcBd- | 
[V:2] z4 | 
[V:3] d/ c/B/A/GB- | 
[V:4] z4 | 
[V:1] d/ c/B/A/GB | 
[V:2] z4 | 
[V:3] B/ c/ded- | 
[V:4] z4 | 
[V:1] AG2^F | 
[V:2] z4 | 
[V:3] dBA2 | 
[V:4] z4 | 
[V:1] G4 ||  
[V:2] z4 ||  
[V:3] G4 ||  
[V:4] z4 ||  
[V:1] [M:2/2]G4 | 
[V:2] [M:2/2]d4 | 
[V:3] [M:2/2]B4- | 
[V:4] [M:2/2]G,4 | 
[V:1] G3G | 
[V:2] e3e | 
[V:3] B4 | 
[V:4] E,2E,2 | 
[V:1] G2G2 | 
[V:2] e2e2 | 
[V:3] c2c2 | 
[V:4] C,2C,2 | 
[V:1] G2G2 | 
[V:2] e2e2 | 
[V:3] B2B2 | 
[V:4] E,2E,2 | 
[V:1] A4 | 
[V:2] f4 | 
[V:3] d2d2 | 
[V:4] D,4 | 
[V:1] B4 | 
[V:2] d2g2- | 
[V:3] d4 | 
[V:4] G,4 | 
[V:1] A2A2 | 
[V:2] g2^f2 | 
[V:3] c2c2 | 
[V:4] A,2A,2 | 
[V:1] D3E | 
[V:2] g4 | 
[V:3] B2d2- | 
[V:4] G,4 | 
[V:1] FGA2 | 
[V:2] z2f2 | 
[V:3] dcA2 | 
[V:4] D,4 | 
[V:1] B2B2 | 
[V:2] g2g3/f/ | 
[V:3] z4 | 
[V:4] G,,2G,,2 | 
[V:1] B4 | 
[V:2] d2d2 | 
[V:3] G4 | 
[V:4] G,,2G,,2 | 
[V:1] G4- | 
[V:2] e2e2 | 
[V:3] G2G2 | 
[V:4] C,4 | 
[V:1] G2E2 | 
[V:2] e2c2 | 
[V:3] c2c2 | 
[V:4] C,4 | 
[V:1] G2F2 | 
[V:2] G2A2 | 
[V:3] c2d2 | 
[V:4] E,2D,2 | 
[V:1] D>EFG- | 
[V:2] z4 | 
[V:3] B>cde- | 
[V:4] G,2F,E, | 
[V:1] GA_B/A/G/F/ | 
[V:2] z2F2 | 
[V:3] e/ d/c2B | 
[V:4] C,2D,2 | 
[V:1] E4- | 
[V:2] G4 | 
[V:3] c4- | 
[V:4] C,4 | 
[V:1] E4 | 
[V:2] A>BcB/A/ | 
[V:3] c4 | 
[V:4] z4 | 
[V:1] G2A2 | 
[V:2] G2F2 | 
[V:3] B2A3/B/ | 
[V:4] z4 | 
[V:1] GFE2 | 
[V:2] EDA2 | 
[V:3] cd2c | 
[V:4] z4 | 
[V:1] D/E/F/G/AB- | 
[V:2] z4 | 
[V:3] B2AG | 
[V:4] z4 | 
[V:1] BA2G | 
[V:2] z4 | 
[V:3] c2B2 | 
[V:4] z4 | 
[V:1] c>B A/G/B | 
[V:2] z4 | 
[V:3] Ac>Bd- | 
[V:4] z4 | 
[V:1] AG2^F | 
[V:2] z4 | 
[V:3] dBA2 | 
[V:4] z4 | 
[V:1] G4 | 
[V:2] d4 | 
[V:3] G4 | 
[V:4] G,,4 | 
[V:1] E2E2 | 
[V:2] c4 | 
[V:3] G4 | 
[V:4] C,4 | 
[V:1] E3E | 
[V:2] c2G2- | 
[V:3] G2c2- | 
[V:4] C,2C,2 | 
[V:1] E4 | 
[V:2] G2G2 | 
[V:3] ccc2 | 
[V:4] C,4 | 
[V:1] E2E2 | 
[V:2] G2G2 | 
[V:3] c2c2 | 
[V:4] C,2C,2 | 
[V:1] G2G2 | 
[V:2] G2G2 | 
[V:3] B2c2 | 
[V:4] E,2E,2 | 
[V:1] F4 | 
[V:2] A3B | 
[V:3] d4 | 
[V:4] D,4 | 
[V:1] E2F2 | 
[V:2] c2d2 | 
[V:3] A2D2 | 
[V:4] z4 | 
[V:1] EA2G- | 
[V:2] ef2e- | 
[V:3] GFDc- | 
[V:4] z4 | 
[V:1] GFE2 | 
[V:2] ed2^c | 
[V:3] cdA2 | 
[V:4] z4 | 
[V:1] D4 | 
[V:2] d4 | 
[V:3] z4 | 
[V:4] D,2F,2- | 
[V:1] z4 | 
[V:2] z4 | 
[V:3] D2F2- | 
[V:4] F,G,A,2 | 
[V:1] z4 | 
[V:2] z4 | 
[V:3] FGA2 | 
[V:4] D,2F,2 | 
[V:1] z4 | 
[V:2] z4 | 
[V:3] Dd2c | 
[V:4] F,2E,2 | 
[V:1] z4 | 
[V:2] z4 | 
[V:3] BA2G- | 
[V:4] D,2C,B,, | 
[V:1] z4 | 
[V:2] z4 | 
[V:3] GF/E/DG- | 
[V:4] G,,2B,,C, | 
[V:1] z4 | 
[V:2] z4 | 
[V:3] G^FGG | 
[V:4] A,,2G,,2 | 
[V:1] z4 | 
[V:2] G2A2 | 
[V:3] E2D2 | 
[V:4] z4 | 
[V:1] z2G2 | 
[V:2] c2B2 | 
[V:3] C2z2 | 
[V:4] z4 | 
[V:1] A2c2 | 
[V:2] Ac2B/A/ | 
[V:3] z4 | 
[V:4] z4 | 
[V:1] B>GAB- | 
[V:2] G2cd- | 
[V:3] z4 | 
[V:4] z4 | 
[V:1] BG2^F | 
[V:2] dc/B/A2 | 
[V:3] z4 | 
[V:4] z4 | 
[V:1] G2z2 | 
[V:2] G2z2 | 
[V:3] z4 | 
[V:4] G,,2G,,2 | 
[V:1] z4 | 
[V:2] z4 | 
[V:3] z2G2 | 
[V:4] A,,2C,2 | 
[V:1] z4 | 
[V:2] z4 | 
[V:3] G2A2 | 
[V:4] B,,2A,,C,- | 
[V:1] z4 | 
[V:2] z4 | 
[V:3] c2B2 | 
[V:4] C,A,,G,,2 | 
[V:1] z4 | 
[V:2] z4 | 
[V:3] AB2G- | 
[V:4] C,D,B,,C, | 
[V:1] z4 | 
[V:2] z4 | 
[V:3] G^FG2 | 
[V:4] A,,2G,,2 | 
[V:1] z4 | 
[V:2] d>ef2 | 
[V:3] B2A2 | 
[V:4] G,2F,2 | 
[V:1] B2A2 | 
[V:2] dgef | 
[V:3] d2cA | 
[V:4] G,2A,F, | 
[V:1] d2cA | 
[V:2] d>ef2 | 
[V:3] B2A2 | 
[V:4] G,2A,F, | 
[V:1] B2A2 | 
[V:2] ed3- | 
[V:3] GG2^F | 
[V:4] G,2D,2 | 
[V:1] GG2^F | 
[V:2] dcd2 | 
[V:3] G2A2 | 
[V:4] E,2D,2 | 
[V:1] G4 | 
[V:2] B4 | 
[V:3] G4 | 
[V:4] G,,4- | 
[V:1] z4 | 
[V:2] G4 | 
[V:3] z4 | 
[V:4] G,,4 | 
[V:1] z4 | 
[V:2] B2c2 | 
[V:3] z4 | 
[V:4] z4 | 
[V:1] z4 | 
[V:2] Bd2c/B/ | 
[V:3] z4 | 
[V:4] G,,2B,,2 | 
[V:1] z4 | 
[V:2] A2GB- | 
[V:3] z4 | 
[V:4] C,2B,,D,- | 
[V:1] z4 | 
[V:2] BA/G/^F2 | 
[V:3] z4 | 
[V:4] D,B,,A,,2 | 
[V:1] D4 | 
[V:2] G4 | 
[V:3] z4 | 
[V:4] G,,2B,,2 | 
[V:1] F2G2 | 
[V:2] z4 | 
[V:3] z4 | 
[V:4] A,,2G,,2 | 
[V:1] FA2G/F/ | 
[V:2] z4 | 
[V:3] D2F2 | 
[V:4] z4 | 
[V:1] E2DF- | 
[V:2] z4 | 
[V:3] G2FA- | 
[V:4] z4 | 
[V:1] FE/D/^C2 | 
[V:2] z4 | 
[V:3] AG/F/E2 | 
[V:4] z4 | 
[V:1] D4 | 
[V:2] A4 | 
[V:3] D4 | 
[V:4] z4 | 
[V:1] C4 | 
[V:2] A2A2 | 
[V:3] E4 | 
[V:4] A,,4 | 
[V:1] C2C2 | 
[V:2] A2A2 | 
[V:3] E2E2 | 
[V:4] A,,2A,,2 | 
[V:1] C2CC | 
[V:2] EA>Bc | 
[V:3] E2EE | 
[V:4] A,,2A,,A,, | 
[V:1] D2D2 | 
[V:2] B^G^G3/^F/ | 
[V:3] D2D2 | 
[V:4] B,,2B,,2 | 
[V:1] C2C2 | 
[V:2] A>Bc2 | 
[V:3] E2E2 | 
[V:4] A,,4 | 
[V:1] F2F2 | 
[V:2] d2A3/B/ | 
[V:3] D2D2 | 
[V:4] z2D,2 | 
[V:1] E2E2 | 
[V:2] c>BGc- | 
[V:3] G2G2 | 
[V:4] C,2C,2 | 
[V:1] D2E2 | 
[V:2] cBc2 | 
[V:3] F2G2 | 
[V:4] D,2C,2 | 
[V:1] G2FE- | 
[V:2] G2zc- | 
[V:3] E2DG- | 
[V:4] C,2D,C,- | 
[V:1] ED2^C | 
[V:2] cA2A | 
[V:3] GFE2 | 
[V:4] C,D,A,,2 | 
[V:1] D2z2 | 
[V:2] A2z2 | 
[V:3] DF>GA- | 
[V:4] D,3C,- | 
[V:1] z4 | 
[V:2] z4 | 
[V:3] AG2^F | 
[V:4] C,B,,A,,2 | 
[V:1] D>E F/G/A- | 
[V:2] D3F- | 
[V:3] Gd2c- | 
[V:4] G,,2z2 | 
[V:1] AG2^F | 
[V:2] FGD2 | 
[V:3] cBA2 | 
[V:4] z4 | 
[V:1] G2B2 | 
[V:2] d2g2 | 
[V:3] G2G2 | 
[V:4] G,,2G,,2 | 
[V:1] BBB2 | 
[V:2] g2g2 | 
[V:3] GGB2 | 
[V:4] G,2G,2 | 
[V:1] A4- | 
[V:2] f4 | 
[V:3] d4 | 
[V:4] D,4 | 
[V:1] A4 | 
[V:2] [M:3/3](3:2:2f2e2 | 
[V:3] [M:3/3](3:2:2d2c2 | 
[V:4] [M:3/3](3:2:1z2 | 
[V:1] z4 | 
[V:2] (3:2:2d2c2 | 
[V:3] (3d2f2e2 | 
[V:4] (3:2:1z2 | 
[V:1] z4 | 
[V:2] (3d2f2e2 | 
[V:3] (3:2:2d2z2 | 
[V:4] (3:2:2D,2C,2 | 
[V:1] [M:3/2]D4C2 | 
[V:2] d4G2 | 
[V:3] [M:3/2]z6 | 
[V:4] [M:3/2]D,2F,2E,2 | 
[V:1] D2F2E2 | 
[V:2] F2D2A2 | 
[V:3] d4c2 | 
[V:4] D,4z2 | 
[V:1] D4z2 | 
[V:2] Bd2BA2 | 
[V:3] B2>G2A2 | 
[V:4] G,4F,2 | 
[V:1] d4c2 | 
[V:2] G3g2^f | 
[V:3] B4z2 | 
[V:4] G,2B,2A,2 | 
[V:1] B2>G2A2 | 
[V:2] g2e2f2 | 
[V:3] z6 | 
[V:4] G,4F,2 | 
[V:1] B4B2 | 
[V:2] d4g2 | 
[V:3] d4d2 | 
[V:4] G,4G,2 | 
[V:1] B4c2 | 
[V:2] g4e2 | 
[V:3] d4c2- | 
[V:4] G,4A,2 | 
[V:1] A4G2 | 
[V:2] f2d4 | 
[V:3] c2_B4 | 
[V:4] F,2G,4 | 
[V:1] A2B4 | 
[V:2] z6 | 
[V:3] A2d4 | 
[V:4] D,4B,,2 | 
[V:1] A4^G2 | 
[V:2] e2f2e2 | 
[V:3] c2B4 | 
[V:4] C,2D,2E,2 | 
[V:1] A4G2 | 
[V:2] c4G2 | 
[V:3] A2>B2c2 | 
[V:4] F,4E,2 | 
[V:1] F2E4 | 
[V:2] A2c3A | 
[V:3] d4^c2 | 
[V:4] D,2A,4 | 
[V:1] D6 | 
[V:2] A2B4 | 
[V:3] d4z2 | 
[V:4] D,2G,3F, | 
[V:1] z6 | 
[V:2] G2g4 | 
[V:3] G4c2- | 
[V:4] E,D,C,4 | 
[V:1] G6 | 
[V:2] e4d2- | 
[V:3] c2B4 | 
[V:4] C,2G,4 | 
[V:1] F2E3D | 
[V:2] d2B2c2 | 
[V:3] A2G2A2 | 
[V:4] D,2E,2C,2 | 
[V:1] D4^C2 | 
[V:2] A4A2 | 
[V:3] F2E4 | 
[V:4] D,2A,,4 | 
[V:1] D6 | 
[V:2] F2>G2AB | 
[V:3] D4F2 | 
[V:4] A,4F,2 | 
[V:1] E2F4 | 
[V:2] c2d4 | 
[V:3] G2A4 | 
[V:4] E,2D,4 | 
[V:1] G4E2 | 
[V:2] B2>c2e2 | 
[V:3] G4c2 | 
[V:4] E,4C,2 | 
[V:1] F2G4 | 
[V:2] d2e4 | 
[V:3] A2B4 | 
[V:4] F,2E,4 | 
[V:1] A4c2 | 
[V:2] c4c2 | 
[V:3] A6 | 
[V:4] F,4A,2 | 
[V:1] B2A2d2- | 
[V:2] d2f2d2- | 
[V:3] d4B2 | 
[V:4] G,2F,2G,2- | 
[V:1] dc2<A2G | 
[V:2] d2f2d2 | 
[V:3] G2c2B2 | 
[V:4] G,2F,2G,2 | 
[V:1] G4^F2 | 
[V:2] c2d4 | 
[V:3] G2A4 | 
[V:4] E,2D,4 | 
[V:1] G4 |]  
[V:2] d4 |]  
[V:3] G4 |]  
[V:4] G,,4 |]  


